X:0433
T:The Key of Kindness.
N:A Strathspey.
G:Strathspey
M:C
L:1/8
Q:1/4=120
I: :: ||
Z:Jack Campin * www.campin.me.uk * 2009
K:D
z   |D2 dF  D/D/D dF|E(fTed) B/B/B  B2    |A>Bd>F   A>Bd>e   |f>dg>e fdd     ::
f/g/|a>fdf  a>baf   |g>ba>f  e/e/e  e(f/g/|a>)fd>f  a>(bTa>f)|g>eaf  d/d/d d
g/a/|b>ga>f g>ef>d  |gbaf    e/e/e Te>f   |d>BAG  (TF>ED).F  |g>eag  d/d/d d2:|
<end>
<start>
